X: 26877
T: Minister's Hole, The
R: jig
M: 6/8
K: Dmixolydian
|:dcB cBA|GAB AFD|DAD AFD|EFG ABc|
~d2B cBA|GAB AFD|DAD AFD|EFG FED:|
|:FGA FDD|B/c/de d2d|dcA FGA|c2B cAG|
FGA FDD|B/c/de d2d|dcA FGA|c2B cAG:|
|:FGA c2A|FGA d2A|FGA dcA|AGF ~G3|
FGA c2A|FGA d2e|fed ed^c|dcA ~G3:|

